X:1
T:La Bourree de Maurienges
R:bourree a trois temps
A:France
B:The Massif Central Tune Book, compilation Mel Stevens, publiser Dragonfly Music, Newbiggin by the Sea, 2nd edition 1992 nr.33
F:http://simonwascher.info
Z:abc transcription Simon Wascher
M:3/8
L:1/16
K:C
|:\
f4e2 | d2e2f2 | g2gfga | gfgag2 |
f4e2 | d2e2f2 | g2gfga | g6 :|
defgfe | dfe2c2 | Bcdedc | Bcd4 |
defgfe | dfe2c2 | BcdedB | c6 :|
